X:160
T:Wilt Thou, O Man, Live Happily
%%stretchlast false
M:4/4
L:1/4
K:Bb clef=C1
"^iii"[D,F,A,D]2 "^I"[B,,B,DF] "^V¹"[A,,CF] | "^vi"[G,,B,DG] "^iii"[D,A,FA] "^vi"[G,DB] "^III"[D,_G,DA]/ "^III7"[D,_G,CA]/ | "^vi"[G,,G,B,G]2 "^V/vi"[D,_G,DA]2 | "^vi¹"[B,,G,DB] "^V¹"[A,,A,CF] "^vi"[G,,D,B,G] [G,,G,B,D] | "^V"[F,,A,CF] "^V¹"[A,,F,CF] "^I"[B,,F,B,D] [B,,D,B,] | "^V"[F,,A,CF] "^ii"[C,G,CE] "^VI"[G,,G,=B,D]2 | "^V"[F,,A,CA]2 "^I"[B,,F,DB] "^V¹"[A,,F,Fc] | "^I"[B,,F,DB] "^ii"[C,E,CG] "^V/vi"[D,A,_G] "^vi"[G,,D,B,G]/ "^♭v°¹"[G,,=E,B,G]/ | "^III"[D,_G,DA]2 "^iii"[D,F,A,D]2 | "^vii°¹"[C,E,CA] "^I"[B,,F,DB] "^V"[F,CA] "^iii"[D,A,DF] | "^vi¹"[B,,G,DG] "^ii"[C,G,CE] "^vi"[G,,G,B,D] [G,,D,G,B,] | "^V"[F,,A,CF]3/2 "^ii"[C,G,CE]/ "^vi"[G,,G,B,D]2 | "^III"[D,_G,A,D]4 |]
